X: 102
T: Mr A R Sutherland's Reel
C: by John Pringle
B: John Pringle "Collection of Reels Strathspeys & Jigs", 1801 p.10#2
Z: 2011 John Chambers <jc:trillian.mit.edu>
R: reel
M: C|
L: 1/8
K: D
V: 1
A | d2Ad FDDF | GBFD EDCA,| d2Ad FAGB | AGFE D3  :|
A | FDGE AFDA | BcdB AGFA | FDGE AFBd | cABc d2de |
    fdec BcdB | AdFd EFGB | Adfd cdef | gbec d2d |]
V: 2 clef=bass middle=d
z | d2d2 d2d2 | e2d2 A2A2 | d2f2 d2g2 | a2A2 d2D :|
z | d2e2 f3d  | g2g2 f2d2 | d2e2 f2g2 | a2A2 d2d2 |
    d2A2 G2g2 | f2d2 A2G2 | D2d2 A2d2 | e2A2 d2D :|

%%sep 2 1 500

